X:233
T:Too many lovers will puzzle a maid - Langworthy
%%VWML:SBG-1-2-810-0
F:http://www.vwml.org/record/SBG/1/2/810
Z:Original Sibelius transcriptions by M. & S. Graebe
M:3/4
I:linebreak $
K:D
V:1 treble nm="P1"
V:1
 F | F3/2 F/ F F E F | B/ A3/2 F E2 F | F B A F E D | E2 A2 z D/ E/ |$ F F F G F G | %6
 A B3/2 A/ A3/2 z/ A, | A, A, A, F3/2 E/ D | E2 D2 z2 | F3 D2 D | G F G F3 |$ D D D D E F | %12
 G G E E3 | A3 F2 F | G F G F3 | G B G A G E | E/ D3/2 D D2 z | %17



